public/assets/icons/stored-medical-info.svg

<svg viewBox="0 0 60 60" xmlns="http://www.w3.org/2000/svg" xmlns:xlink="http://www.w3.org/1999/xlink"><linearGradient id="a" gradientUnits="userSpaceOnUse" x1="30" x2="30" y1="55" y2="5"><stop offset="0" stop-color="#facfdc"/><stop offset="1" stop-color="#d2e2f7"/></linearGradient><g transform="matrix(1.2 0 0 1.2 -6 -6)"><circle cx="30" cy="30" fill="url(#a)" r="25"/><path d="m33.91 31.25h-7.82a.7.7 0 0 0 -.71.7v2.94a4.62 4.62 0 1 0 9.24 0v-2.89a.7.7 0 0 0 -.71-.75zm-3.15 4.75v.88a.76.76 0 1 1 -1.52 0v-.88a1.73 1.73 0 1 1 1.52 0z" fill="#ffecf1"/><path d="m33.15 28.05a3.15 3.15 0 1 0 -6.3 0v1.68h6.3z" fill="#fff"/><path d="m43.19 22h-26.38a1.2 1.2 0 0 0 -1.2 1.2v18.04a1.2 1.2 0 0 0 1.2 1.2h26.38a1.2 1.2 0 0 0 1.2-1.2v-18.08a1.2 1.2 0 0 0 -1.2-1.16zm-7.06 12.89a6.13 6.13 0 0 1 -12.26 0v-2.89a2.23 2.23 0 0 1 1.46-2.09v-1.86a4.67 4.67 0 1 1 9.34 0v1.81a2.23 2.23 0 0 1 1.46 2.14z" fill="#fff"/><path d="m43.19 19.52h-15.8a2.68 2.68 0 0 1 -1.92-.8l-.81-.81a1.19 1.19 0 0 0 -.84-.35h-7a1.2 1.2 0 0 0 -1.2 1.2v2a2.58 2.58 0 0 1 1.2-.28h26.37a2.58 2.58 0 0 1 1.2.28 1.2 1.2 0 0 0 -1.2-1.24z" fill="#ffecf1"/><g fill="#0d1c3a"><path d="m43.19 18h-15.8a1.19 1.19 0 0 1 -.85-.35l-.81-.81a2.69 2.69 0 0 0 -1.91-.79h-7a2.72 2.72 0 0 0 -2.72 2.71v22.48a2.72 2.72 0 0 0 2.71 2.76h26.38a2.72 2.72 0 0 0 2.72-2.71v-20.57a2.72 2.72 0 0 0 -2.72-2.72zm1.2 23.24a1.2 1.2 0 0 1 -1.2 1.2h-26.38a1.2 1.2 0 0 1 -1.2-1.2v-18.08a1.2 1.2 0 0 1 1.2-1.2h26.38a1.2 1.2 0 0 1 1.2 1.2zm0-20.51a2.58 2.58 0 0 0 -1.2-.28h-26.38a2.58 2.58 0 0 0 -1.2.28v-2a1.2 1.2 0 0 1 1.2-1.2h7a1.19 1.19 0 0 1 .84.35l.81.81a2.68 2.68 0 0 0 1.92.8h15.8a1.2 1.2 0 0 1 1.2 1.2z"/><path d="m34.67 29.86v-1.81a4.67 4.67 0 1 0 -9.34 0v1.81a2.23 2.23 0 0 0 -1.46 2.14v2.94a6.13 6.13 0 0 0 12.26 0v-2.94a2.23 2.23 0 0 0 -1.46-2.14zm-7.82-1.81a3.15 3.15 0 1 1 6.3 0v1.68h-6.3zm7.77 6.84a4.62 4.62 0 1 1 -9.24 0v-2.89a.7.7 0 0 1 .71-.7h7.82a.7.7 0 0 1 .71.7z"/><path d="m30 32.66a1.74 1.74 0 0 0 -.76 3.3v.88a.76.76 0 1 0 1.52 0v-.84a1.74 1.74 0 0 0 -.76-3.3z"/></g></g></svg>

<?xml version="1.0" encoding="utf-8"?>
<svg viewBox="0 0 60 60" xmlns="http://www.w3.org/2000/svg">
  <defs>
    <style>.cls-1{fill:url(#New_Gradient_Swatch_2);}.cls-2{fill:#ffecf1;}.cls-3{fill:#fff;}.cls-4{fill:#0d1c3a;}</style>
    <linearGradient id="New_Gradient_Swatch_2" x1="30" y1="55" x2="30" y2="5" gradientUnits="userSpaceOnUse">
      <stop offset="0" stop-color="#facfdc"/>
      <stop offset="1" stop-color="#d2e2f7"/>
    </linearGradient>
  </defs>
  <title>one-idea-icon copy 6</title>
  <g id="Layer_6" data-name="Layer 6" transform="matrix(1.2, 0, 0, 1.2, -6, -6)">
    <circle class="cls-1" cx="30" cy="30" r="25"/>
    <path class="cls-2" d="M33.91,31.25H26.09a.7.7,0,0,0-.71.7v2.94a4.62,4.62,0,1,0,9.24,0V32A.7.7,0,0,0,33.91,31.25ZM30.76,36v.88a.76.76,0,1,1-1.52,0V36a1.73,1.73,0,1,1,1.52,0Z"/>
    <path class="cls-3" d="M33.15,28.05a3.15,3.15,0,1,0-6.3,0v1.68h6.3Z"/>
    <path class="cls-3" d="M43.19,22H16.81a1.2,1.2,0,0,0-1.2,1.2V41.24a1.2,1.2,0,0,0,1.2,1.2H43.19a1.2,1.2,0,0,0,1.2-1.2V23.16A1.2,1.2,0,0,0,43.19,22ZM36.13,34.89a6.13,6.13,0,0,1-12.26,0V32a2.23,2.23,0,0,1,1.46-2.09V28.05a4.67,4.67,0,1,1,9.34,0v1.81A2.23,2.23,0,0,1,36.13,32Z"/>
    <path class="cls-2" d="M43.19,19.52H27.39a2.68,2.68,0,0,1-1.92-.8l-.81-.81a1.19,1.19,0,0,0-.84-.35h-7a1.2,1.2,0,0,0-1.2,1.2v2a2.58,2.58,0,0,1,1.2-.28H43.19a2.58,2.58,0,0,1,1.2.28h0A1.2,1.2,0,0,0,43.19,19.52Z"/>
    <path class="cls-4" d="M43.19,18H27.39a1.19,1.19,0,0,1-.85-.35l-.81-.81a2.69,2.69,0,0,0-1.91-.79h-7a2.72,2.72,0,0,0-2.72,2.71V41.24A2.72,2.72,0,0,0,16.81,44H43.19a2.72,2.72,0,0,0,2.72-2.71V20.72A2.72,2.72,0,0,0,43.19,18Zm1.2,23.24a1.2,1.2,0,0,1-1.2,1.2H16.81a1.2,1.2,0,0,1-1.2-1.2V23.16a1.2,1.2,0,0,1,1.2-1.2H43.19a1.2,1.2,0,0,1,1.2,1.2Zm0-20.51a2.58,2.58,0,0,0-1.2-.28H16.81a2.58,2.58,0,0,0-1.2.28v-2a1.2,1.2,0,0,1,1.2-1.2h7a1.19,1.19,0,0,1,.84.35l.81.81a2.68,2.68,0,0,0,1.92.8h15.8a1.2,1.2,0,0,1,1.2,1.2Z"/>
    <path class="cls-4" d="M34.67,29.86V28.05a4.67,4.67,0,1,0-9.34,0v1.81A2.23,2.23,0,0,0,23.87,32v2.94a6.13,6.13,0,0,0,12.26,0V32A2.23,2.23,0,0,0,34.67,29.86Zm-7.82-1.81a3.15,3.15,0,1,1,6.3,0v1.68h-6.3Zm7.77,6.84a4.62,4.62,0,1,1-9.24,0V32a.7.7,0,0,1,.71-.7h7.82a.7.7,0,0,1,.71.7Z"/>
    <path class="cls-4" d="M30,32.66a1.74,1.74,0,0,0-.76,3.3v.88a.76.76,0,1,0,1.52,0V36a1.74,1.74,0,0,0-.76-3.3Z"/>
  </g>
</svg>
